!!!ONB: MCCC : IEG0138_01 : Extracted Monophonic Melody
!!!COM: Grieg, Edvard
!!!OPR: Violin Sonata No.3, Op.45
!!!OMV: 1
!!!SCT: Op.45
!!!ODT: 1887///
**kern
*staff1
*clefG2
*k[]
*C:
*M6/8
=2
8.c
16B
16c
16d
8.e-
16d
16c
16B
=3
8.G
16B
16c
16d
4.g
=4
2.r
=5
8.c
16B
16c
16d
8.e-
16d
16c
16B
=6
8.G
16B
16c
16d
4.g
=7
2.r
=8
8.f
16e
16f
16g
8.g#
16G
16G#
16B-
=9
8.c
16B
16c
16d
4.e-
=10
8.g#
16f##
16g#
16b-
8.cc
16B
16c
16d
=11
8.e-
16d
16e-
16f
4.g
=12
8.g
16f#
16g
16a
4.b-
=13
8.b-
16a
16b-
16cc
4.dd
=14
8.dd
16cc#
16dd
16ee
4.ff
=15
8.ff
16ee
16ff
16gg
4aa
16r
16ddd
=16
2.ddd
=17
2.dd
=18
2.d
=19
2.d[
=20
4.d]
4.f
=21
2.f[
=22
2.f]
=23
2.G#
=24
4.G
4B[
16B]
16c
=25
4.d
4B
8G
=26
4.c
4e[
16e]
16f
=27
2.g
=28
4.d
4f#[
16f#]
16g
=29
4.a
4f#
8d
=30
4.g
4b[
16b]
16cc
=31
2.dd
=32
4.g
4b[
16b]
16cc
=33
4.dd
4b
8g
=34
8G
4e
4.r
=35
2.gg
=36
4.dd
4ff#[
16ff#]
16gg
=37
4.aa
4ff#
8dd
=38
16r
16b
4gg
4bb[
16bb]
16ccc
=39
4.ddd
4ddd
8ddd
=40
4.a]
4.r
=41
2.r
=42
16ee-
8ccc
16bb
16ccc
16ddd
4.eee-
=43
8.ccc
16bb
16ccc
16ddd
4.eee-
=44
8r
16B
16B
16c
16c
16d
16d
16e-
16e-
16b
16b
=45
16cc
16cc
16dd
16dd
16ee-
16ee-
16bb
16bb
16ccc
16ccc
16eee-
16eee-
=46
8ggg
8ggg
8ggg
8ggg
8ggg
8ggg
=47
8ggg
8ggg
8ggg
8ggg
8ggg
8ggg
=48
2.ccc
=49
2.ccc
=50
2.ccc
=51
2.cc
=52
2.cc
=53
2.cc
=54
2.r
=55
8.c
16B
16c
16e-
4.g
=56
2.r
=57
2.r
=58
2.r
=59
2.r
=60
2.g
=61
2.b-
=62
4g[
24g]
24f
24g
8f
8e-
8g
=63
2.b-
=64
4.g
4.g
=65
4g[
24g]
24f
24g
4f
8e-
=66
2.f
=67
2.b-
=68
2.r
=69
2.r
=70
2.r
=71
2.r
=72
2.r
=73
2.r
=74
2.r
=75
2.r
=76
2.r
=77
2.r
=78
2.r
=79
2.r
=80
4.b
4.dd
=81
8b
8g#
8b
4.dd
=82
4b
8b
8b
8a
8g#
=83
4.b
4.dd
=84
4.cc
4.ee-
=85
8cc
8a
8cc
4.ee-
=86
4cc
8cc
8cc
8b
8a
=87
4.cc
4.ee-
=88
8r
16d
16d
16f
16f
16f#
16f#
16g
16g
16g#
16g#
=89
8r
16d
16d
16f
16f
16f#
16f#
16g
16g
16g#
16g#
=90
8r
16d
16d
16f
16f
16f#
16f#
16g
16g
16g#
16g#
=91
8r
16d
16d
16f
16f
16f#
16f#
16g
16g
16g#
16g#
=92
8r
16e-
16e-
16f#
16f#
16g
16g
16g#
16g#
16a
16a
=93
8r
16e-
16e-
16f#
16f#
16g
16g
16g#
16g#
16a
16a
=94
8r
16e-
16e-
16f#
16f#
16g
16g
16g#
16g#
16a
16a
=95
8r
16e-
16e-
16f#
16f#
16g
16g
16g#
16g#
16a
16a
=96
2.r
=97
4cc
8cc
8cc
8b
8a
=98
4.cc
4.ff#
=99
2.r
=100
4ccc
8ccc
8ccc
8bb
8aa
=101
4.ccc
4.fff#
=102
2.r
=103
4.ccc#
4.fff#
=104
2.r
=105
4.ddd
4.fff#
=106
2.r
=107
4.eee-
4.fff#
=108
2.r
=109
4ggg
8ggg
8ggg
8fff
8eee-
=110
4.ggg
4.bbb-[
=111
2.bbb-]
=112
4gg
8gg
8gg
8ff
8ee-
=113
4.gg
4.bb-[
=114
2.bb-]
=115
4g
8g
8g
8f
8e-
=116
4.g
4.b-[
=117
2.b-]
=118
4g#
8g#
8g#
8g
8f
=119
4.g#
4.cc[
=120
2.cc]
=121
4b-
8b-
8b-
8g#
8g
=122
4.b-
4.ee-[
=123
4.ee-]
4.dd[
=124
4.dd]
4.gg[
=125
4.gg]
4ee-
8cc
=126
4.b-
4g#
8f
=127
2.r
=128
4gg
8gg
8gg
8ff
8ee-
=129
4.gg
4.bb-
=130
4.r
4r
8gg
=131
4bb-
8ff
4r
8ff
=132
4bb-
8ee
4.r
=133
2.r
=134
4r
8g
8g
8f
8e-
=135
4.g
4.b-
=136
4.r
4r
8g
=137
4b-
8f
4r
8f
=138
4b-
8e
4.r
=139
4.r
4r
8c#
=140
4f#
8c#
4r
8c#
=141
4f#
8c
4r
8c
=142
4f
8c
4.r
=143
4.r
4r
8B
=144
4f
8B
4.r
=145
2.r
=146
2.bb-[
=147
2.bb-]
=148
4aa
8bb-[
8bb-]
4ccc
=149
2.ddd
=150
4.ddd[
4ddd]
16ccc
16ddd
=151
4ccc
8bb-[
8bb-]
4aa
=152
2.ff[
=153
2.ff]
=154
4aa
8bb-[
8bb-]
4ddd
=155
2.fff
=156
2.fff[
=157
2.fff]
=158
2.B-[
=159
2.B-]
=160
4A
8B-[
8B-]
4c#
=161
2.f[
=162
2.f]
=163
2.e
=164
2.aa[
=165
2.aa]
=166
4gg#
8aa[
8aa]
4bb
=167
2.ccc#
=168
4.ccc#[
4ccc#]
16bb
16ccc#
=169
4bb
8aa[
8aa]
4gg#
=170
2.ee[
=171
2.ee]
=172
4gg#
8aa[
8aa]
4ccc#
=173
2.eee
=174
2.eee[
=175
2.eee]
=176
2.A[
=177
2.A]
=178
4G#
8A[
8A]
4c
=179
2.e[
=180
2.e]
=181
2.e-
=182
4.r
4.a
=183
4.g#
4.f#
=184
4.e
4.e-
=185
2.e-[
=186
2.e-]
=187
2.d
=188
4.r
4.g#
=189
4.g
4.f
=190
4.e-
4.d
=191
4.d[
4d]
8c#
=192
2.r
=193
4.d[
4d]
8c#
=194
2.r
=195
4.c#[
4c#]
8c
=196
2.r
=197
4.c[
4c]
8B
=198
2.r
=199
4.B[
4B]
8B-
=200
2.r
=201
4.B-[
4B-]
8A
=202
2.r
=203
4.A[
4A]
8G#
=204
2.r
=205
4.A[
4A]
8G#
=206
2.r
=207
2.A[
=208
4.A]
4.G#
=209
2.r
=210
2.r
=211
2.r
=212
2.r
=213
2.d[
=214
4.d]
4.c#
=215
2.r
=216
2.r
=217
2.r
=218
2.r
=219
2.d[
=220
4.d]
4.c#
=221
2.r
=222
2.r
=223
2.c#[
=224
4.c#]
4.c
=225
2.r
=226
2.r
=227
4.c
16B
16B
16c
16c
16d
16d
=228
4.e-
4.r
=229
4.c
16B
16B
16c
16c
16d
16d
=230
4.e-
4.r
=231
4.c
16B
16B
16c
16c
16d
16d
=232
4.e-
16d
16d
16c
16c
16B
16B
=233
4.G
16B
16B
16c
16c
16e-
16e-
=234
2.g
=235
4.e-
16d
16d
16e-
16e-
16f
16f
=236
4.f#
4.r
=237
4.e-
16d
16d
16e-
16e-
16f
16f
=238
4.f#
4.r
=239
4.e-
16d
16d
16e-
16e-
16f
16f
=240
4.f#
16f
16f
16e-
16e-
16d
16d
=241
4.B-
16d
16d
16e-
16e-
16f#
16f#
=242
2.b-
=243
8.f#
16e#
16f#
16g
8.a
16g
16f#
16f
=244
8.c#
16e#
16f#
16a
4.cc#
=245
8.a
16g#
16a
16b
8.cc
16b
16a
16g#
=246
8.e
16g#
16a
16cc
4.ee
=247
2.r
=248
2.ccc[
=249
2.ccc]
=250
4bb
8ccc[
8ccc]
4ddd
=251
8b-
4eee-
4.eee-[
=252
2.eee-]
=253
8ff
4ddd[
4.ddd]
=254
8ff
4ccc[
4.ccc]
=255
8r
16r
16B
16c
16e
8.g
16b
16cc
16ee
=256
8.gg
16bb
16ccc
16eee
4.ggg[
=257
8.ggg]
16B
16c
16e-
8.g
16b
16cc
16ee-
=258
8.gg
16bb
16ccc
16eee-
4.ggg[
=259
8.ggg]
16B
16c
16d
8.g#
16b
16cc
16dd
=260
8.gg#
16bb
16ccc
16ddd
4.ggg#[
=261
8ggg#]
8fff
8ddd
8bb
8gg#
8ff
=262
8dd
8b
8g#
8f
8d
8B
=263
8.c
16B
16c
16d
8.e-
16d
16c
16B
=264
8.G
16B
16c
16e-
4.g
=265
2.r
=266
8.c
16B
16c
16d
8.e-
16d
16c
16B
=267
8.G
16B
16c
16e-
4.g
=268
2.r
=269
8.f
16e
16f
16g
8.g#
16G
16G#
16B-
=270
8.c
16B
16c
16d
4.e-
=271
8.g#
16f##
16g#
16b-
8.cc
16B
16c
16d
=272
8.e-
16d
16e-
16f
4.g
=273
8.g
16f#
16g
16a
4.b-
=274
8.b-
16a
16b-
16cc
4.dd
=275
8.dd
16cc#
16dd
16ee
4.ff
=276
8.ff
16ee
16ff
16gg
4aa
16r
16ddd
=277
2.ddd
=278
2.dd
=279
2.d
=280
2.d[
=281
4.d]
4.f
=282
2.f[
=283
2.f]
=284
2.G#
=285
4.G
4B[
16B]
16c
=286
4.d
4B
8G
=287
4.c
4e[
16e]
16f
=288
2.g
=289
4.d
4f#[
16f#]
16g
=290
4.a
4f#
8d
=291
4.g
4b[
16b]
16cc
=292
2.dd
=293
4.g
4b[
16b]
16cc
=294
4.dd
4b
8g
=295
8G
4e
4.r
=296
2.gg
=297
4.dd
4ff#[
16ff#]
16gg
=298
4.aa
4ff#
8dd
=299
16r
16b
4gg
4bb[
16bb]
16ccc
=300
2.ddd
=301
8.ccc
16bb
16ccc
16ddd
8eee-
8G
8a[
=302
4.a]
4.r
=303
2.r
=304
16ee-
8ccc
16bb
16ccc
16ddd
4.eee-
=305
8r
16B
16B
16c
16c
16d
16d
16e-
16e-
16b
16b
=306
16cc
16cc
16dd
16dd
16ee-
16ee-
16bb
16bb
16ccc
16ccc
16eee-
16eee-
=307
8ggg
8ggg
8ggg
8ggg
8ggg
8ggg
=308
8ggg
8ggg
8ggg
8ggg
8ggg
8ggg
=309
2.ccc
=310
2.ccc
=311
2.ccc
=312
2.cc
=313
2.cc
=314
2.cc
=315
2.r
=316
8.c
16B
16c
16e-
4.g
=317
2.r
=318
2.r
=319
2.r
=320
2.r
=321
2.e
=322
2.g
=323
4e[
24e]
24d
24e
8d
8c
8e
=324
2.g
=325
4.e
4.e
=326
4e[
24e]
24d
24e
4d
8c
=327
2.d
=328
2.g
=329
2.r
=330
2.r
=331
2.r
=332
2.r
=333
2.r
=334
2.r
=335
2.r
=336
2.r
=337
2.r
=338
2.r
=339
2.r
=340
2.r
=341
4.g#
4.b
=342
8g#
8f
8g#
4.b
=343
4g#
8g#
8g#
8f#
8e#
=344
4.g#
4.b
=345
4.a
4.cc
=346
8a
8f#
8a
4.cc
=347
4a
8a
8a
8g#
8f#
=348
4.a
4.cc
=349
8r
16B
16B
16d
16d
16e-
16e-
16e
16e
16f
16f
=350
8r
16B
16B
16d
16d
16e-
16e-
16e
16e
16f
16f
=351
8r
16B
16B
16d
16d
16e-
16e-
16e
16e
16f
16f
=352
8r
16B
16B
16d
16d
16e-
16e-
16e
16e
16f
16f
=353
8r
16c
16c
16e-
16e-
16e
16e
16f
16f
16f#
16f#
=354
8r
16c
16c
16e-
16e-
16e
16e
16f
16f
16f#
16f#
=355
8r
16c
16c
16e-
16e-
16e
16e
16f
16f
16f#
16f#
=356
8r
16c
16c
16e-
16e-
16e
16e
16f
16f
16f#
16f#
=357
2.r
=358
4a
8a
8a
8g#
8f#
=359
4.a
4.ee-
=360
2.r
=361
4aa
8aa
8aa
8gg#
8ff#
=362
4.aa
4.eee-
=363
2.r
=364
4.bb-
4.eee-
=365
2.r
=366
4.bb
4.eee-
=367
2.r
=368
4.ccc
4.eee-
=369
2.r
=370
4eee
8eee
8eee
8ddd
8ccc
=371
4.eee
4.ggg[
=372
2.ggg]
=373
4ee
8ee
8ee
8dd
8cc
=374
4.ee
4.gg[
=375
2.gg]
=376
4e
8e
8e
8d
8c
=377
4.e
4.g[
=378
2.g]
=379
4f
8f
8f
8e
8d
=380
4.f
4.a[
=381
2.a]
=382
4g
8g
8g
8f
8e
=383
4.g
4.cc[
=384
4.cc]
4.b[
=385
4.b]
4.ee[
=386
4.ee]
4cc
8a
=387
4.g
4f
8d
=388
2.r
=389
4ee
8ee
8ee
8dd
8cc
=390
4.ee
4.gg
=391
4.r
4r
8ee
=392
4gg
8dd
4r
8dd
=393
4gg
8cc#
4.r
=394
2.r
=395
4r
8e
8e
8d
8c
=396
4.e
4.g
=397
4.r
4r
8B-
=398
4e-
8B-
4r
8B-
=399
4e-
8A
4.r
=400
2.r
=401
2.gg#[
=402
2.gg#]
=403
4ff##
8gg#[
8gg#]
4bb-
=404
2.ccc
=405
4.ccc[
4ccc]
16bb-
16ccc
=406
4bb-
8gg#[
8gg#]
4gg
=407
2.ee-[
=408
2.ee-]
=409
4gg
8gg#[
8gg#]
4ccc
=410
2.eee-
=411
2.eee-[
=412
2.eee-]
=413
2.G#[
=414
2.G#]
=415
4F##
8G#[
8G#]
4B
=416
2.e-[
=417
2.e-]
=418
2.d
=419
16G
16G
16e-
16e-
16cc
16cc
16cc
16cc
16e-
16e-
16G
16G
=420
16G
16G
16e-
16e-
16cc
16cc
16cc
16cc
16e-
16e-
16G
16G
=421
16G
16G
16e-
16e-
16cc
16cc
16cc
16cc
16e-
16e-
16G
16G
=422
16G
16G
16d
16d
16cc
16cc
16cc
16cc
16d
16d
16G
16G
=423
16G
16G
16d
16d
16cc
16cc
16cc
16cc
16d
16d
16G
16G
=424
16G
16G
16d
16d
16b
16b
16b
16b
16d
16d
16G
16G
=425
2.r
=426
2.r
=427
2.r
=428
4.r
4.G#
=429
4.c#
4.c
=430
24B
24c
24B
24c
24B
24c
24B
24c
24B
24c
24B
24c
24B
24c
24B
24c
24B
24c
=431
24B
24c
24B
24c
24B
24c
24B
24c
24B
24c
24B
24c
8A
8B
=432
8.c
16B
16c
16d
4.e-[
=433
8.e-]
16B
16c
16d
4.e-[
=434
8.e-]
16B
16c
16d
8e-
8c
8e-
=435
4.g#
4.g[
=436
4.g]
4.f[
=437
4.f]
4.e-[
=438
4.e-]
4.d[
=439
4.d]
4.c
=440
4.g#
4.g
=441
2.b-[
=442
4.b-]
4.cc#[
=443
4.cc#]
4.cc
=444
2.cc
=445
2.g
=446
2.g[
=447
4.g]
4.g
=448
8.c
16B
16c
16d
8.e-
16d
16c
16B
=449
8.G
16B
16c
16e-
4.g
=450
8.cc
16b
16cc
16dd
8.ee-
16dd
16cc
16b
=451
8.g
16b
16cc
16ee-
4.gg[
=452
8.gg]
16bb
16ccc
16eee-
4.ggg[
=453
8.ggg]
16bb
16ccc
16eee-
4.ggg[
=454
4ggg]
8ggg[
4ggg]
8ggg[
=455
4ggg]
8ggg[
4ggg]
8ggg[
=456
2.ggg]
=457
2.cccc
=458
2.cccc
=459
2.cccc[
=460
2.cccc]
=461
2.c
=462
2.c
=463
2.c
=464
2.c
=465
2.c[
=466
4.c]
4.r
==
*-
